X:40
T:Chattering Magpie
R:reel
M:4/4
L:1/8
K:Gmaj
A|:BGAF DGGF|G2 ge fdcA|BGAF DGBG|E/F/G AB c2 dc|
BGAF DGGF|G2 ge fdcA|BGAF DGBG|E/F/G AB c2 Bc||
dggf g2 gf|d~g3 fgaf|dggf ~g3a|bgag fdcA|
dggf g2 gf|d~g3 fgaf|d~g3 dgBg|bgag fdcA||

